!!!OTL: 2058. Marias Wanderung.
!!!ARE: Europa, Mitteleuropa, Deutschland, Hessen, Darmstadt
!!!SCT: E2058C
!!!TXL: @@DE
!!!YEM: Copyright 1995, estate of Helmut Schaffrath.
**kern	**text
*ICvox	*
*M4/4	*
*met(c)	*
*k[b-]	*
*F:	*
!LO:TX:a:t=Aus dem Heſſen-Darmſtädtiſchen.	!
{8fL	Ma-
8gJ	.
=1	=1
4.a	-ri-
8g	-a
(8aL	gieng
8b-	.
8ccJ)	.
8dd	aus
=2	=2
(4cc	wan-
8b-\L	.
8aJ)	.
4g}	-dern,
{8ccL	.
8aJ	wollt
=3	=3
4g	al-
4g	-le
4g	Land
8fL	aus-
8gJ	.
=4	=4
2a	-gehn,
4r}	.
{8fL	wollt
8gJ	.
=5	=5
4a	ſu-
4a	-chen
4a	ih-
8gL	-ren
8fJ	.
=6	=6
2g	Sohn,
4r}	.
{8gL	wollt
8aJ	.
=7	=7
4b-/	ſu-
8ccL	-chen
8b-J	.
4a	ih-
4g	-ren
=8	=8
2f	Sohn.
4r}	.
==	==
!!!AGN: geistlich, Marien - Lied, Legende
!!!ONB: ESAC (Essen Associative Code) Database: ERK3
!!!AMT: simple quadruple
!!!AIN: vox
!!!EED: Helmut Schaffrath
!!!EEV: 1.0
!!!GTL: 4. Katholische Lieder: b) Marienlieder (Rufe und Legenden.)
!!!URL-scan: https://rosdok.uni-rostock.de/mcrviewer/recordIdentifier/rosdok_ppn745177999/iview2/phys_0760.iview2?x=113.01762814781455&y=449.43947215005755&scale=0.7014306698522891&rotation=0&layout=singlePageLayout
!!!ENC: Anna Maria Matuszewska
!!!EEV: 2025/13/01
*-	*-
